humanity-icon-theme/Humanity/actions/16/window-close.svg

<?xml version="1.0" encoding="UTF-8" standalone="no"?>
<!-- Created with Inkscape (http://www.inkscape.org/) -->

<svg
   xmlns:svg="http://www.w3.org/2000/svg"
   xmlns="http://www.w3.org/2000/svg"
   xmlns:xlink="http://www.w3.org/1999/xlink"
   version="1.0"
   width="16"
   height="16"
   id="svg3245">
  <defs
     id="defs3247">
    <linearGradient
       id="linearGradient3203">
      <stop
         id="stop3205"
         style="stop-color:#777976;stop-opacity:1"
         offset="0" />
      <stop
         id="stop3207"
         style="stop-color:#565755;stop-opacity:1"
         offset="1" />
    </linearGradient>
    <linearGradient
       x1="11.192374"
       y1="3"
       x2="11.192374"
       y2="22.000153"
       id="linearGradient3234"
       xlink:href="#linearGradient3203"
       gradientUnits="userSpaceOnUse"
       gradientTransform="matrix(0.5789497,0,0,0.6111135,1.0526026,0.3610808)" />
    <linearGradient
       x1="36.010902"
       y1="13.022708"
       x2="16.331276"
       y2="32.702335"
       id="linearGradient3231"
       xlink:href="#linearGradient7916"
       gradientUnits="userSpaceOnUse"
       gradientTransform="matrix(0.3077308,-0.3244787,0.3077308,0.3244787,-7.0772298,7.6731277)" />
    <linearGradient
       id="linearGradient7916">
      <stop
         id="stop7918"
         style="stop-color:white;stop-opacity:1"
         offset="0" />
      <stop
         id="stop7920"
         style="stop-color:white;stop-opacity:0"
         offset="1" />
    </linearGradient>
    <linearGradient
       x1="28.449389"
       y1="20.584223"
       x2="16.331276"
       y2="32.702335"
       id="linearGradient3228"
       xlink:href="#linearGradient7916"
       gradientUnits="userSpaceOnUse"
       gradientTransform="matrix(0.3077308,-0.3244787,0.3077308,0.3244787,-7.387443,7.8368511)" />
  </defs>
  <g
     id="layer1">
    <path
       d="M 13.500022,11.238787 10.315018,7.9979993 13.37974,4.6029276 11.1705,2.4999782 8.0164763,5.735285 4.7985185,2.4999782 2.4999775,4.6802777 5.7179349,7.984171 l -3.2179574,3.251136 2.298541,2.264715 3.2142236,-3.397073 3.2216929,3.397073 2.265587,-2.261235 z"
       id="text1314"
       style="font-size:59.90107727px;font-style:normal;font-variant:normal;font-weight:bold;font-stretch:normal;text-align:start;line-height:125%;writing-mode:lr-tb;text-anchor:start;fill:url(#linearGradient3234);fill-opacity:1;stroke:#4d4d4d;stroke-width:1;stroke-linecap:butt;stroke-linejoin:miter;stroke-miterlimit:4;stroke-opacity:1;stroke-dasharray:none;font-family:Bitstream Vera Sans" />
    <path
       d="M 12.003441,4.6566678 11.231825,3.9068954 8.082615,7.1693496 4.7768304,3.9260687 3.9136407,4.7224795"
       id="path7076"
       style="font-size:59.90107727px;font-style:normal;font-variant:normal;font-weight:bold;font-stretch:normal;text-align:start;line-height:125%;writing-mode:lr-tb;text-anchor:start;opacity:0.3;fill:none;stroke:url(#linearGradient3231);stroke-width:1;stroke-linecap:square;stroke-linejoin:miter;stroke-miterlimit:4;stroke-opacity:1;stroke-dasharray:none;font-family:Bitstream Vera Sans" />
    <path
       d="M 12.449166,11.611954 9.3446906,8.3987905 m -2.653824,-0.00618 -3.1094413,3.1906855"
       id="path3165"
       style="font-size:59.90107727px;font-style:normal;font-variant:normal;font-weight:bold;font-stretch:normal;text-align:start;line-height:125%;writing-mode:lr-tb;text-anchor:start;opacity:0.3;fill:none;stroke:url(#linearGradient3228);stroke-width:1;stroke-linecap:butt;stroke-linejoin:miter;stroke-miterlimit:4;stroke-opacity:1;stroke-dasharray:none;font-family:Bitstream Vera Sans" />
  </g>
</svg>

<?xml version="1.0" encoding="UTF-8" standalone="no"?>
<!-- Created with Inkscape (http://www.inkscape.org/) -->
<svg id="svg3245" xmlns="http://www.w3.org/2000/svg" height="16" width="16" version="1.0" xmlns:xlink="http://www.w3.org/1999/xlink">
 <defs id="defs3247">
  <linearGradient id="linearGradient3234" y2="22" gradientUnits="userSpaceOnUse" x2="11.192" gradientTransform="matrix(.57895 0 0 .61111 1.0526 .36108)" y1="3" x1="11.192">
   <stop id="stop3205" style="stop-color:#777976" offset="0"/>
   <stop id="stop3207" style="stop-color:#565755" offset="1"/>
  </linearGradient>
  <linearGradient id="linearGradient3231" y2="32.702" xlink:href="#linearGradient7916" gradientUnits="userSpaceOnUse" x2="16.331" gradientTransform="matrix(.30773 -.32448 .30773 .32448 -7.0772 7.6731)" y1="13.023" x1="36.011"/>
  <linearGradient id="linearGradient7916">
   <stop id="stop7918" style="stop-color:#fff" offset="0"/>
   <stop id="stop7920" style="stop-color:#fff;stop-opacity:0" offset="1"/>
  </linearGradient>
  <linearGradient id="linearGradient3228" y2="32.702" xlink:href="#linearGradient7916" gradientUnits="userSpaceOnUse" x2="16.331" gradientTransform="matrix(.30773 -.32448 .30773 .32448 -7.3874 7.8369)" y1="20.584" x1="28.449"/>
 </defs>
 <g id="layer1">
  <path id="text1314" style="stroke:#4d4d4d;fill:url(#linearGradient3234)" d="m13.5 11.239-3.185-3.241 3.065-3.3951-2.21-2.1029-3.1535 3.2353-3.218-3.2353-2.2985 2.1803 3.2179 3.3039l-3.218 3.2511 2.2985 2.2647 3.2142-3.3971 3.2217 3.3971 2.2656-2.2612z"/>
  <path id="path7076" style="opacity:.3;stroke:url(#linearGradient3231);stroke-linecap:square;fill:none" d="m12.003 4.6567-0.771-0.7498-3.1494 3.2624-3.3058-3.2432-0.8632 0.7964"/>
  <path id="path3165" style="opacity:.3;stroke:url(#linearGradient3228);fill:none" d="m12.449 11.612-3.1043-3.2132m-2.6538-0.00618-3.1094 3.1907"/>
 </g>
</svg>
